outputs/icons/editor/bold_round.svg

<svg xmlns="http://www.w3.org/2000/svg" width="1200" height="1200" fill="none"><g clip-path="url(#a)"><path fill="#000" d="M780 539.5C828.5 506 862.5 451 862.5 400c0-113-87.5-200-200-200H400c-27.5 0-50 22.5-50 50v600c0 27.5 22.5 50 50 50h289c103.5 0 198-84.5 198.5-188.5.5-76.5-42.5-142-107.5-172M500 325h150c41.5 0 75 33.5 75 75s-33.5 75-75 75H500zm175 450H500V625h175c41.5 0 75 33.5 75 75s-33.5 75-75 75"/></g><defs><clipPath id="a"><path fill="#fff" d="M0 0h1200v1200H0z"/></clipPath></defs></svg>

<svg width="1200" height="1200" viewBox="0 0 1200 1200" fill="none" xmlns="http://www.w3.org/2000/svg"><g clip-path="url(#clip0_238_246)"><path d="M780 539.5C828.5 506 862.5 451 862.5 400C862.5 287 775 200 662.5 200H400C372.5 200 350 222.5 350 250V850C350 877.5 372.5 900 400 900H689C792.5 900 887 815.5 887.5 711.5C888 635 845 569.5 780 539.5ZM500 325H650C691.5 325 725 358.5 725 400C725 441.5 691.5 475 650 475H500V325ZM675 775H500V625H675C716.5 625 750 658.5 750 700C750 741.5 716.5 775 675 775Z" fill="#1D1E23"/></g><defs><clipPath id="clip0_238_246"><path width="24" fill="white" d="M0 0H1200V1200H0V0z"/></clipPath></defs></svg>
